src/icons/tailwindcss.svg

<svg width="60" height="60" viewBox="0 0 60 60" fill="none" xmlns="http://www.w3.org/2000/svg">
<g clip-path="url(#clip0_173_300)">
<path d="M30.0019 12.0009C22.0017 12.0009 17.0034 15.9994 15.0019 23.9995C18.0009 20.0006 21.502 18.5011 25.5009 19.5009C27.7842 20.07 29.4159 21.7256 31.223 23.5603C34.1639 26.5448 37.568 30 45.0019 30C53.0015 30 58.0003 26.0011 60.0019 17.999C57.0023 22.0003 53.5017 23.4998 49.5023 22.5C47.2195 21.9304 45.5897 20.2753 43.7803 18.4406C40.8412 15.4561 37.4381 12.0009 30.0019 12.0009ZM15.0019 30C7.00217 30 2.00342 33.9989 0.00186157 42.0009C3.00092 37.9997 6.50155 36.5001 10.5009 37.5C12.7842 38.0695 14.4159 39.7247 16.223 41.5594C19.1639 44.5439 22.568 47.999 30.0019 47.999C38.0015 47.999 43.0003 44.0006 45.0019 36.0005C42.0023 39.9994 38.5017 41.4989 34.5023 40.499C32.2195 39.93 30.5897 38.2744 28.7803 36.4397C25.8412 33.4551 22.4381 30 15.0019 30Z" fill="#38B2AC"/>
</g>
<defs>
<clipPath id="clip0_173_300">
<rect width="60" height="60" fill="white"/>
</clipPath>
</defs>
</svg>

<svg xmlns="http://www.w3.org/2000/svg" width="60" height="60" fill="none"><g clip-path="url(#a)"><path fill="#38B2AC" d="M30.002 12c-8 0-12.999 4-15 12C18 20 21.502 18.5 25.5 19.5c2.283.57 3.915 2.226 5.722 4.06 2.94 2.985 6.345 6.44 13.779 6.44 8 0 12.998-3.999 15-12.001-3 4.001-6.5 5.5-10.5 4.501-2.283-.57-3.912-2.225-5.722-4.06C40.841 15.457 37.438 12 30.002 12Zm-15 18c-8 0-12.999 3.999-15 12C3 38 6.502 36.5 10.5 37.5c2.283.57 3.915 2.225 5.722 4.06 2.94 2.984 6.345 6.439 13.779 6.439 8 0 12.998-3.998 15-11.998-3 3.998-6.5 5.498-10.5 4.498-2.283-.569-3.912-2.225-5.722-4.06C25.841 33.456 22.438 30 15.002 30Z"/></g><defs><clipPath id="a"><path fill="#fff" d="M0 0h60v60H0z"/></clipPath></defs></svg>
